X:3421
L:1/8
Q:1/8=180
M:4/4
K:D
 DFAd BABc | d2 cA BE E2 | DFAd BABc | d2 AG FD D2 | DFAd BABc | d2 cA BE E2 | DFAd BABc | 
 d2 AG FDFA || d2 fd edfd | d2 cA BE E2 | d2 fd edfd | dBAG FDFA | d2 fd edfd | d2 cA BE E2 | 
 gfed edBc | dBAG FD D2 |]

